config/expand/iconfont/module-menu/module-hujiaozhongxin_active.svg

<?xml version="1.0" encoding="UTF-8"?>
<svg width="22px" height="21px" viewBox="0 0 22 21" version="1.1" xmlns="http://www.w3.org/2000/svg" xmlns:xlink="http://www.w3.org/1999/xlink">
    <!-- Generator: Sketch 53 (72520) - https://sketchapp.com -->
    <title>hujiaozhongxinActive</title>
    <desc>Created with Sketch.</desc>
    <g id="Page-2" stroke="none" stroke-width="1" fill="none" fill-rule="evenodd">
        <g id="图标" transform="translate(-795.000000, -642.000000)" fill="#FFFFFF" fill-rule="nonzero">
            <g id="hujiaozhongxinActive" transform="translate(795.000000, 642.000000)">
                <g id="hujiaozhongxin">
                    <path d="M10.54853,3.93794283 C12.3264827,3.45102089 14.2290776,3.95265333 15.5357975,5.25287075 C16.8375887,6.55900318 17.3389542,8.4632299 16.8478506,10.2413877 C16.7708715,10.5560959 16.5289159,10.8040946 16.216192,10.8888224 C15.9034682,10.9735503 15.5694047,10.8816154 15.3440731,10.6488138 C15.1187415,10.4160122 15.0377574,10.0791399 15.1326528,9.76936233 C15.4529315,8.60845647 15.126796,7.3649439 14.2779858,6.51062791 C13.4247229,5.65995694 12.1803187,5.33305614 11.01911,5.65453213 C10.5528145,5.76483202 10.0829035,5.48611456 9.95612534,5.02404604 C9.82934719,4.56197751 10.0912301,4.08249453 10.54853,3.93940875 L10.54853,3.93794283 Z M19.2808051,17.0197558 C18.8175551,18.7055608 16.5855493,20.2352594 14.2194559,20.2352594 C13.5436386,20.2352594 12.9660421,20.1678272 12.4514827,20.0285651 C9.76623678,19.3594611 7.16405397,18.0398333 5.19970599,16.090656 C3.25288317,14.0999401 1.66038844,11.2019193 1.0212207,8.5955181 C0.201737297,5.36610203 1.82629709,2.17201569 3.71301468,1.60177383 C3.95636753,1.51821653 4.19678843,1.51821653 4.41082166,1.51821653 C5.90319037,1.51821653 7.67567305,3.0806936 9.08448084,5.59327605 C9.93035191,7.15301219 9.43011192,8.0250241 8.83638958,8.84886969 L8.62235635,9.15671235 C8.49921394,9.33408837 8.35114985,9.54371455 8.18842595,9.79292051 C8.23533734,9.93951226 8.30277248,10.0787744 8.38779938,10.2063092 C8.46842834,10.3045257 8.99324956,11.1063825 9.53419655,11.6443742 C9.89336191,12.0328423 10.045127,12.2716671 10.2972757,12.4417135 L10.3207314,12.4417135 L10.5450265,12.5883053 C10.7062844,12.6967832 10.9188517,12.806727 11.053722,12.8565682 C11.4715266,12.5897712 11.7368691,12.4211907 11.9435724,12.2496784 L12.1561397,12.1001548 C12.670699,11.7571301 13.0307752,11.3921329 13.6992625,11.3921329 C14.2885869,11.3921329 14.7606328,11.6193501 15.1066043,11.817249 C18.7217136,13.8270217 19.5886611,15.8528855 19.2808051,17.0197558 Z M14.3483529,13.4942585 C14.1035341,13.3549963 13.9496061,13.2978256 13.8162018,13.2978256 C13.6842635,13.2978256 13.4306488,13.4693379 13.1374526,13.6657708 C12.7621614,13.9501588 12.3751424,14.2140239 11.9734636,14.4573662 L11.7975459,14.5658441 C11.6729375,14.6274127 11.4369145,14.746152 11.093875,14.746152 C10.4957547,14.746152 9.81407355,14.337161 9.54873096,14.159785 L9.55019695,14.1539213 C8.83186624,13.7801124 7.90829818,12.8536526 7.89657033,12.8419252 C7.44366389,12.3616693 7.03175135,11.8443492 6.66514625,11.2953824 L6.60943899,11.2323479 C6.56839152,11.1737112 5.61403786,9.87930613 6.27226335,8.88688004 C6.4471943,8.61759429 6.6280426,8.35219872 6.81467633,8.09088689 L7.01991368,7.79330565 C7.57258853,7.02369901 7.59311226,6.99584658 7.28525624,6.42853654 C5.833935,3.83826045 4.83266996,3.55973615 4.47057264,3.55973613 L4.29025698,3.56706572 C3.33590332,3.85438553 2.36982181,5.68824822 2.96354413,8.02052284 C3.5696929,10.3993877 4.79353829,12.5759175 6.51121825,14.3298314 C8.25714907,16.044025 10.4277468,17.2628462 12.8002769,17.8612265 C13.1741021,17.9638407 13.6138964,18.01075 14.1255238,18.0107501 C15.7952762,18.0107501 17.0061765,17.2279502 17.2158118,16.4715368 C17.2861789,16.1959443 17.3037707,15.1331542 14.3498189,13.4942585 L14.3483529,13.4942585 Z" id="Shape"></path>
                    <path d="M21.6694445,9.40444351 C21.4946091,9.86161792 20.9923334,10.1039622 20.5236831,9.95726481 C20.0550328,9.81056741 19.7823246,9.32563685 19.9015977,8.85107027 C20.501319,6.94018287 19.9800864,4.85575698 18.550523,3.4480799 C17.1449396,2.0287069 15.0666228,1.49930779 13.1492778,2.07224808 C12.6711423,2.18890502 12.1847131,1.91355541 12.0407678,1.44476164 C11.8968226,0.975967867 12.145434,0.476803771 12.6073213,0.307230688 C15.1795218,-0.464210216 17.9692513,0.242296213 19.8588518,2.14370011 C21.7786372,4.03682576 22.4771394,6.83850921 21.6694445,9.40596377 L21.6694445,9.40444351 Z" id="Path"></path>
                </g>
            </g>
        </g>
    </g>
</svg>

<svg width="22" height="21" xmlns="http://www.w3.org/2000/svg"><path d="M10.549 3.938a5.144 5.144 0 014.987 1.315 5.131 5.131 0 011.312 4.988.89.89 0 11-1.715-.472 3.357 3.357 0 00-.855-3.258 3.35 3.35 0 00-3.259-.856.89.89 0 01-.47-1.716v-.001zM19.28 17.02c-.463 1.686-2.695 3.215-5.062 3.215-.675 0-1.253-.067-1.768-.206-2.685-.67-5.287-1.99-7.251-3.938C3.253 14.1 1.66 11.2 1.02 8.596c-.82-3.23.805-6.424 2.692-6.994.243-.084.484-.084.698-.084 1.492 0 3.265 1.563 4.673 4.075.846 1.56.346 2.432-.248 3.256l-.214.308c-.123.177-.27.387-.434.636.047.147.115.286.2.413.08.099.605.9 1.146 1.438.36.389.511.628.763.798h.024l.224.146c.161.109.374.219.509.269.418-.267.683-.436.89-.607l.212-.15c.515-.343.875-.708 1.543-.708.59 0 1.062.227 1.408.425 3.615 2.01 4.482 4.036 4.174 5.203zm-4.933-3.526c-.244-.139-.398-.196-.532-.196-.132 0-.385.171-.679.368a13.55 13.55 0 01-1.164.791l-.175.109c-.125.061-.361.18-.704.18-.598 0-1.28-.409-1.545-.586l.001-.006c-.718-.374-1.642-1.3-1.653-1.312a11.83 11.83 0 01-1.232-1.547l-.056-.063c-.04-.058-.995-1.353-.337-2.345.175-.27.356-.535.543-.796l.205-.298c.553-.77.573-.797.265-1.364-1.451-2.59-2.452-2.87-2.814-2.87l-.18.008c-.955.287-1.921 2.121-1.327 4.454A13.935 13.935 0 006.51 14.33a13.79 13.79 0 006.29 3.531c.373.103.813.15 1.325.15 1.67 0 2.88-.783 3.09-1.54.07-.275.088-1.338-2.866-2.977h-.002z"/><path d="M21.67 9.404a.93.93 0 01-1.768-.553c.6-1.91.078-3.995-1.351-5.403a5.42 5.42 0 00-5.402-1.376.923.923 0 01-.542-1.765 7.279 7.279 0 017.252 1.837 7.173 7.173 0 011.81 7.262v-.002z"/></svg>
